client/src/shared/assets/icons/product.svg

<svg width="19" height="19" viewBox="0 0 19 19" fill="none" xmlns="http://www.w3.org/2000/svg">
<path d="M10.0606 6.06044C9.47486 5.47465 9.47486 4.52491 10.0606 3.93912L12.9393 1.06043C13.5251 0.474647 14.4749 0.474647 15.0607 1.06043L17.9393 3.93912C18.5251 4.52491 18.5251 5.47465 17.9393 6.06044L15.0607 8.93913C14.4749 9.52491 13.5251 9.52491 12.9393 8.93913L10.0606 6.06044Z" fill="#777777"/>
<path d="M2 0.999779C0.895431 0.999779 0 1.89521 0 2.99978V6.99978C0 8.10435 0.895431 8.99978 2 8.99978H6C7.10457 8.99978 8 8.10435 8 6.99978V2.99978C8 1.89521 7.10457 0.999779 6 0.999779H2Z" fill="#777777"/>
<path d="M0 12.9998C0 11.8952 0.895431 10.9998 2 10.9998H6C7.10457 10.9998 8 11.8952 8 12.9998V16.9998C8 18.1044 7.10457 18.9998 6 18.9998H2C0.895431 18.9998 0 18.1044 0 16.9998V12.9998Z" fill="#777777"/>
<path d="M10 12.9998C10 11.8952 10.8954 10.9998 12 10.9998H16C17.1046 10.9998 18 11.8952 18 12.9998V16.9998C18 18.1044 17.1046 18.9998 16 18.9998H12C10.8954 18.9998 10 18.1044 10 16.9998V12.9998Z" fill="#777777"/>
</svg>

<svg xmlns="http://www.w3.org/2000/svg" fill="currentColor" viewBox="0 0 19 19"><path d="M10.06 6.06a1.5 1.5 0 0 1 0-2.12l2.88-2.88a1.5 1.5 0 0 1 2.12 0l2.88 2.88a1.5 1.5 0 0 1 0 2.12l-2.88 2.88a1.5 1.5 0 0 1-2.12 0zM2 1a2 2 0 0 0-2 2v4a2 2 0 0 0 2 2h4a2 2 0 0 0 2-2V3a2 2 0 0 0-2-2zM0 13a2 2 0 0 1 2-2h4a2 2 0 0 1 2 2v4a2 2 0 0 1-2 2H2a2 2 0 0 1-2-2zm10 0a2 2 0 0 1 2-2h4a2 2 0 0 1 2 2v4a2 2 0 0 1-2 2h-4a2 2 0 0 1-2-2z"/></svg>
